icons/svg/seamark_big/landmark_monument.svg

<?xml version="1.0" encoding="UTF-8" standalone="no"?>
<svg
   xmlns:dc="http://purl.org/dc/elements/1.1/"
   xmlns:cc="http://creativecommons.org/ns#"
   xmlns:rdf="http://www.w3.org/1999/02/22-rdf-syntax-ns#"
   xmlns:svg="http://www.w3.org/2000/svg"
   xmlns="http://www.w3.org/2000/svg"
   xmlns:sodipodi="http://sodipodi.sourceforge.net/DTD/sodipodi-0.dtd"
   xmlns:inkscape="http://www.inkscape.org/namespaces/inkscape"
   width="1060"
   height="1060"
   id="svg2"
   version="1.1"
   inkscape:version="0.48.4 r9939"
   sodipodi:docname="landmark_chimney.svg">
  <defs
     id="defs13">
    <inkscape:path-effect
       effect="gears"
       id="path-effect3774"
       is_visible="true"
       teeth="6"
       phi="-1.2" />
    <inkscape:path-effect
       effect="bend_path"
       id="path-effect3772"
       is_visible="false"
       bendpath="m 95.790098,316.51174 c 144.429032,-206.42506 223.313032,-11.7428 339.548092,0"
       prop_scale="1.19"
       scale_y_rel="false"
       vertical="false"
       bendpath-nodetypes="cc" />
  </defs>
  <sodipodi:namedview
     pagecolor="#ffffff"
     bordercolor="#666666"
     borderopacity="1"
     objecttolerance="10"
     gridtolerance="10"
     guidetolerance="10"
     inkscape:pageopacity="0"
     inkscape:pageshadow="2"
     inkscape:window-width="1920"
     inkscape:window-height="1004"
     id="namedview11"
     showgrid="false"
     inkscape:zoom="0.8137931"
     inkscape:cx="687.57619"
     inkscape:cy="651.28751"
     inkscape:window-x="1680"
     inkscape:window-y="0"
     inkscape:window-maximized="1"
     inkscape:current-layer="svg2"
     inkscape:snap-object-midpoints="true"
     inkscape:snap-center="true" />
  <metadata
     id="metadata2975">image/svg+xmlen<rdf:RDF>
  <cc:Work
     rdf:about="">
    <dc:format>image/svg+xml</dc:format>
    <dc:type
       rdf:resource="http://purl.org/dc/dcmitype/StillImage" />
    <dc:title></dc:title>
  </cc:Work>
</rdf:RDF>
</metadata>
  <path
     sodipodi:type="inkscape:offset"
     inkscape:radius="29.143873"
     inkscape:original="M 511.09375 280.125 L 504.1875 287.90625 L 473.59375 322.25 L 471.28125 324.5625 L 471.28125 328.03125 L 455.75 655.71875 L 434.8125 655.71875 L 426.09375 655.71875 L 426.09375 664.46875 L 426.09375 689.65625 L 400.9375 689.65625 L 392.1875 689.65625 L 392.1875 698.375 L 392.1875 723.78125 L 348.875 723.78125 L 348.875 746.8125 L 463.1875 746.8125 C 468.36672 767.52409 487.20587 782.96875 509.46875 782.96875 C 531.73164 782.96875 550.53568 767.52409 555.71875 746.8125 L 670.03125 746.8125 L 670.03125 723.78125 L 630.03125 723.78125 L 630.03125 698.375 L 630.03125 689.65625 L 621.28125 689.65625 L 596.125 689.65625 L 596.125 664.46875 L 596.125 655.71875 L 587.375 655.71875 L 566.46875 655.71875 L 550.9375 328.03125 L 550.9375 324.5625 L 548.625 322.25 L 518.03125 287.90625 L 511.09375 280.125 z M 511.09375 308.40625 L 532.46875 332.34375 L 547.1875 654.15625 L 475.03125 654.15625 L 489.75 332.34375 L 511.09375 308.40625 z M 443.5625 673.21875 L 578.65625 673.21875 L 578.65625 689.65625 L 523.15625 689.65625 C 518.81135 688.34412 514.22728 687.625 509.46875 687.625 C 504.71022 687.625 500.09395 688.34412 495.75 689.65625 L 443.5625 689.65625 L 443.5625 673.21875 z M 509.46875 704.78125 C 526.4233 704.78125 539.96875 718.35795 539.96875 735.3125 C 539.96875 752.26705 526.4233 765.8125 509.46875 765.8125 C 492.51421 765.8125 478.9375 752.26705 478.9375 735.3125 C 478.9375 718.35795 492.51421 704.78125 509.46875 704.78125 z M 409.65625 707.125 L 471.0625 707.125 C 467.47794 711.99113 464.78433 717.54926 463.25 723.5625 L 409.65625 723.5625 L 409.65625 707.125 z M 547.84375 707.125 L 612.53125 707.125 L 612.53125 723.5625 L 555.65625 723.5625 C 554.12053 717.54826 551.43131 711.9917 547.84375 707.125 z "
     style="font-size:medium;font-style:normal;font-variant:normal;font-weight:normal;font-stretch:normal;text-indent:0;text-align:start;text-decoration:none;line-height:normal;letter-spacing:normal;word-spacing:normal;text-transform:none;direction:ltr;block-progression:tb;writing-mode:lr-tb;text-anchor:start;baseline-shift:baseline;opacity:0.372;color:#000000;fill:#e4e4e4;fill-opacity:1;fill-rule:nonzero;stroke:#a35151;stroke-width:0;stroke-linecap:round;stroke-linejoin:miter;stroke-miterlimit:4;stroke-opacity:1;stroke-dasharray:none;stroke-dashoffset:0;marker:none;visibility:visible;display:inline;overflow:visible;enable-background:accumulate;font-family:Sans;-inkscape-font-specification:Sans"
     id="path3839"
     d="m 512.34375,251 a 29.146788,29.146788 0 0 0 -23.0625,9.78125 l -6.90625,7.78125 0.0312,0.0312 -30.0625,33.71875 -1.65625,1.65625 a 29.146788,29.146788 0 0 0 -8.5625,20.59375 l 0,2.75 -14.1875,299.25 -1.84375,0 a 29.146788,29.146788 0 0 0 -29.15625,29.15625 l 0,4.78125 -4.75,0 a 29.146788,29.146788 0 0 0 -29.15625,29.15625 l 0,4.96875 -14.15625,0 a 29.146788,29.146788 0 0 0 -29.15625,29.15625 l 0,23.03125 a 29.146788,29.146788 0 0 0 29.15625,29.15625 l 95.5,0 c 13.64967,21.72865 37.80985,36.15625 65.09375,36.15625 27.28187,0 51.42163,-14.43745 65.0625,-36.15625 l 95.5,0 A 29.146788,29.146788 0 0 0 699.1875,746.8125 l 0,-23.03125 A 29.146788,29.146788 0 0 0 670.03125,694.625 l -10.84375,0 0,-4.96875 A 29.146788,29.146788 0 0 0 630.03125,660.5 l -4.75,0 0,-4.78125 A 29.146788,29.146788 0 0 0 596.125,626.5625 l -1.84375,0 -14.1875,-299.25 0,-2.75 a 29.146788,29.146788 0 0 0 -8.5625,-20.59375 L 569.875,302.3125 539.78125,268.53125 a 29.146788,29.146788 0 0 0 0,-0.0312 l -6.9375,-7.78125 A 29.146788,29.146788 0 0 0 512.34375,251 z M 511.125,503.46875 516.65625,625 505.5625,625 511.125,503.46875 z m -1.65625,230.46875 c 1.39618,0 1.34375,-0.057 1.34375,1.375 0,1.432 0.0883,1.34375 -1.34375,1.34375 -1.43198,0 -1.375,0.0524 -1.375,-1.34375 0,-1.39617 -0.0212,-1.375 1.375,-1.375 z" />
  <path
     sodipodi:type="arc"
     style="color:#000000;fill:none;stroke:#000000;stroke-width:30.33652288;stroke-linecap:butt;stroke-linejoin:miter;stroke-miterlimit:4;stroke-opacity:1;stroke-dasharray:none;stroke-dashoffset:0;marker:none;visibility:visible;display:inline;overflow:visible;enable-background:accumulate"
     id="path2985"
     sodipodi:cx="510.26483"
     sodipodi:cy="737.74365"
     sodipodi:rx="69.120766"
     sodipodi:ry="69.120766"
     d="m 579.3856,737.74365 a 69.120766,69.120766 0 1 1 -138.24153,0 69.120766,69.120766 0 1 1 138.24153,0 z"
     transform="matrix(0.56558888,0,0,0.56558888,221.05031,318.17685)" />
  <path
     style="font-size:medium;font-style:normal;font-variant:normal;font-weight:normal;font-stretch:normal;text-indent:0;text-align:start;text-decoration:none;line-height:normal;letter-spacing:normal;word-spacing:normal;text-transform:none;direction:ltr;block-progression:tb;writing-mode:lr-tb;text-anchor:start;baseline-shift:baseline;color:#000000;fill:#000000;fill-opacity:1;stroke:none;stroke-width:30.00000191;marker:none;visibility:visible;display:inline;overflow:visible;enable-background:accumulate;font-family:Sans;-inkscape-font-specification:Sans"
     d="m 349.07496,723.91311 0,23.04878 125.55225,0 0,-23.04878 z m 195.57908,0 0,23.04878 125.55225,0 0,-23.04878 z"
     id="path3754"
     inkscape:connector-curvature="0"
     sodipodi:nodetypes="cccccccccc" />
  <rect
     style="fill:none"
     y="209.23727"
     x="249.02544"
     width="487.45749"
     height="487.45749"
     id="rect3" />
  <rect
     style="fill:none"
     y="209.23727"
     x="249.02544"
     width="487.45749"
     height="487.45749"
     id="rect3-8" />
  <path
     style="font-size:medium;font-style:normal;font-variant:normal;font-weight:normal;font-stretch:normal;text-indent:0;text-align:start;text-decoration:none;line-height:normal;letter-spacing:normal;word-spacing:normal;text-transform:none;direction:ltr;block-progression:tb;writing-mode:lr-tb;text-anchor:start;baseline-shift:baseline;color:#000000;fill:#000000;fill-opacity:1;stroke:none;stroke-width:2.03828025;marker:none;visibility:visible;display:inline;overflow:visible;enable-background:accumulate;font-family:Sans;-inkscape-font-specification:Sans"
     d="m 392.375,689.78125 0,8.71875 0,33.90625 0,8.75 8.75,0 74.71875,0 c 0.052,-6.39958 1.89163,-12.3873 5.03125,-17.46875 l -71.03125,0 0,-16.4375 80.76007,0 c 16.03063,-10.97281 29.65834,-6.84152 42.85487,0 l 79.26006,0 0,16.4375 -74.3125,0 c 3.14414,5.08398 4.97912,11.0642 5.03125,17.46875 l 78.03125,0 8.75,0 0,-8.75 0,-33.90625 0,-8.71875 -8.75,0 -220.34375,0 z"
     id="polygon5"
     inkscape:connector-curvature="0"
     sodipodi:nodetypes="ccccccccccccccccccccccc" />
  <polyline
     transform="matrix(8.4752825,0,0,8.4752825,299.40678,317.12641)"
     class="st0"
     points="34,45 34,41 16,41 16,45 "
     id="polyline7"
     style="fill:none;stroke:#000000;stroke-width:2.03828025;stroke-miterlimit:4;stroke-opacity:1;stroke-dasharray:none" />
  <polygon
     transform="matrix(9.2352839,0,0,9.2352839,280.40674,285.16638)"
     class="st0"
     points="21.7,4.7 20,41 30,41 28.3,4.7 25,1 "
     id="polygon9"
     style="fill:none;stroke:#000000;stroke-width:2.03828025;stroke-miterlimit:4;stroke-opacity:1;stroke-dasharray:none" />
</svg>

<svg width="1060" height="1060" viewBox="0 0 1060 1060" fill="none" xmlns="http://www.w3.org/2000/svg">
<path opacity="0.372" d="M512.344 251C508.014 250.813 503.698 251.594 499.708 253.287C495.719 254.979 492.157 257.539 489.281 260.781L482.375 268.562L482.406 268.594L452.344 302.312L450.688 303.969C445.216 309.427 442.136 316.834 442.125 324.562V327.312L427.938 626.562H426.094C422.265 626.561 418.473 627.314 414.935 628.779C411.397 630.244 408.182 632.392 405.474 635.099C402.767 637.807 400.619 641.022 399.154 644.56C397.69 648.098 396.936 651.889 396.938 655.719V660.5H392.188C388.358 660.499 384.566 661.252 381.028 662.717C377.49 664.182 374.276 666.329 371.568 669.037C368.86 671.744 366.713 674.959 365.248 678.497C363.783 682.035 363.03 685.827 363.031 689.656V694.625H348.875C345.046 694.624 341.254 695.377 337.716 696.842C334.178 698.307 330.963 700.454 328.256 703.162C325.548 705.869 323.4 709.084 321.936 712.622C320.471 716.16 319.718 719.952 319.719 723.781V746.812C319.718 750.642 320.471 754.434 321.936 757.971C323.4 761.509 325.548 764.724 328.256 767.432C330.963 770.139 334.178 772.287 337.716 773.752C341.254 775.217 345.046 775.97 348.875 775.969H444.375C458.025 797.697 482.185 812.125 509.469 812.125C536.751 812.125 560.89 797.687 574.531 775.969H670.031C673.86 775.97 677.652 775.217 681.19 773.752C684.728 772.287 687.943 770.139 690.651 767.432C693.358 764.724 695.506 761.509 696.971 757.971C698.436 754.434 699.189 750.642 699.188 746.812V723.781C699.189 719.952 698.436 716.16 696.971 712.622C695.506 709.084 693.358 705.869 690.651 703.162C687.943 700.454 684.728 698.307 681.19 696.842C677.652 695.377 673.861 694.624 670.031 694.625H659.188V689.656C659.189 685.827 658.436 682.035 656.971 678.497C655.506 674.959 653.358 671.744 650.651 669.037C647.943 666.329 644.728 664.182 641.19 662.717C637.652 661.252 633.861 660.499 630.031 660.5H625.281V655.719C625.283 651.889 624.529 648.098 623.064 644.56C621.6 641.022 619.452 637.807 616.744 635.099C614.037 632.392 610.822 630.244 607.284 628.779C603.746 627.314 599.954 626.561 596.125 626.562H594.281L580.094 327.312V324.562C580.083 316.834 577.003 309.427 571.531 303.969L569.875 302.312L539.781 268.531C539.781 268.521 539.781 268.51 539.781 268.5L532.844 260.719C530.25 257.811 527.099 255.452 523.578 253.783C520.057 252.114 516.237 251.167 512.344 251V251ZM511.125 503.469L516.656 625H505.563L511.125 503.469ZM509.469 733.937C510.865 733.937 510.813 733.88 510.813 735.312C510.813 736.744 510.901 736.656 509.469 736.656C508.037 736.656 508.094 736.709 508.094 735.312C508.094 733.916 508.073 733.937 509.469 733.937Z" fill="#E4E4E4"/>
<path d="M548.745 735.437C548.745 740.571 547.735 745.655 545.771 750.399C543.806 755.143 540.927 759.453 537.297 763.084C533.666 766.715 529.356 769.596 524.613 771.561C519.869 773.526 514.785 774.537 509.651 774.537C504.516 774.537 499.432 773.526 494.688 771.561C489.945 769.596 485.635 766.715 482.005 763.084C478.374 759.453 475.495 755.143 473.531 750.399C471.566 745.655 470.556 740.571 470.557 735.437C470.556 730.302 471.566 725.218 473.531 720.474C475.495 715.73 478.374 711.42 482.005 707.789C485.635 704.158 489.945 701.277 494.688 699.312C499.432 697.347 504.516 696.336 509.651 696.336C514.785 696.336 519.869 697.347 524.613 699.312C529.356 701.277 533.666 704.158 537.297 707.789C540.927 711.42 543.806 715.73 545.771 720.474C547.735 725.218 548.745 730.302 548.745 735.437Z" stroke="black" stroke-width="17.158"/>
<path d="M349.075 723.913V746.962H474.627V723.913H349.075ZM544.654 723.913V746.962H670.207V723.913H544.654Z" fill="black"/>
<path d="M392.375 689.781V698.5V732.406V741.156H401.125H475.844C475.896 734.757 477.735 728.769 480.875 723.688H409.844V707.25H490.604C506.634 696.277 520.262 700.408 533.459 707.25H612.719V723.688H538.406C541.55 728.771 543.385 734.752 543.438 741.156H621.469H630.219V732.406V698.5V689.781H621.469H401.125H392.375Z" fill="black"/>
<path d="M587.566 698.514V664.613H435.011V698.514" stroke="black" stroke-width="17.275"/>
<path d="M480.812 328.572L465.112 663.813H557.465L541.765 328.572L511.289 294.402L480.812 328.572Z" stroke="black" stroke-width="18.8241"/>
</svg>
